X:379
T: IN EINEM KUEHLEN GRUNDE
N: B0453A
O: Europa, Mitteleuropa, Deutschland
R: Liebes - Lied, Leid, Klage
M: 6/8
L: 1/8
K: F
C | A2AAGA | B2GE2
C | F2FFEF | G4z
G | G2GGAB | c3D2
G | F2FGFG | A4z
A | AGGGAB | c2fdB
G | F2FA2G | F4z

@@@ Tune index: 2182
